X:1
T:Larksinam Jig
C:Liz Donaldson, 1991
M:6/8
K:Am
g|"Am"aga e2 a|"Am"c2 a A2c|"G"Bcd "E7"G2B|"Am"A2B "E7"E3|"Am"aga e2 a|"Am"c2 a A2c|
"G"Bcd "E7"GAB|"Am"A3 A2:|A|"Am"cAd AeA|"Am"cAe A2A|"G"BAB G2 B|"G"A2B "E7"E2B|
"Am"cAd AeA|"Am"cAe A2A|"G"BAB "E7"GAB|"Am"A3 A2 A||"Am"cAd AeA|"Am"cAe A2A|
"G"BAB G2 B|"G"A2B "E7"E2B|"Am"cBc "G"dcd| "Am"ede "E"a2 g|"Am"edc "E"BAG| "E"E2 B "Am"A2|]E2BAB^c|]
W:                                                                                                                                        Transition last time
W:
W:Visit Liz Donaldson's website: http://www.lizdonaldson.com
